X: 305801
M: 2/4
L: 1/16
K: C
[1 c>cc>d e>c[fd]>[eB] | dcBA GFED :|\
[2 c>cc>d e>cd>B | c2e2c2 H|]
ef |\
gefe dcBc | acBA GFED | CEGF EGcB | Acfe d2ef |\
gedc Bcdc | acBA | GFED | CEGF EGcB | AfdB "^D.C."c2 |]
K: Cm
cd |\
egg2 e2c2 | d2=B2 c2G2 | egg2 e2c2 | gaga g2G2 |\
egg2 e2c2 | d2=B2 c2G2 | EGEG DFDF | C2C2"^D.C."C2 |]


